X: 887
T: Tip the Cruiskeen
B:O'Neill's 887
Z:Transcribed by Dan G. Petersen, dangp@post6.tele.dk
M:6/8
L:1/8
K:F#m
A2B c2A|B2G A2F|cAF FAF|cAF FAF|
A2B c2A|B2G A2F|BGE EGE|BGE EGE:|
e2c d2B|c2A cde|cAF FAF|cAF FAF|
e2c d2B|c2A cde|BGE EGE|BGE EGE:|


